X:503
T:Will Bill Jones
C:Arr. Tim O'Brien
N:
R:bluegrass
L:1/8
Q:1/4=194
M:4/4
K:B
z2 FF F2 =A2 |: "B"=AB BB BB BB | =d^d BB de ee | =f^f [bf][bf] fe =d2 | dd [bd][bd] [bd][b3d3] | 
=f^f bf =aa aa | "F#"e=f f[=af] [af]e =d^d |1 B2 BB B=A F2 | =AB BB BA F2 :|2 B2 [BD][BD] [BD][BD] [d2B2D2] | 
[b4d4B4F4] [b4d4B4F4] | z8 | z8 | z8 | z8 | z8 | z8 | z8 | z8 | z8 | z8 | z8 | 
z8 | z8 | 


